X:1
T:Title
%%score { ( 1 4 ) | ( 2 3 ) }
L:1/8
M:4/4
K:Ab
V:1 treble nm="Grand Piano"
V:4 treble 
V:2 bass 
V:3 bass 
V:1
 z4 z2[Q:1/4=106] [CE]2 | [CE]2 [CA]2 [CA][B,G][CA][DB] | [Ec]2 [Ec]2 [Ec]2 E2 | E2 B2 BABc | %4
 d2 d2 d2 B2 | c2 e2 c2 [Ec][=EB] |[M:9/8] [FA]2 [DF]- [DF] [FA]2- [FA] [FB]2 | %7
[M:4/4] c2 A2 B2 AG |[M:3/4] [CEA]6 |[M:1/4] [A,CA]2 |[M:4/4] B2 B2 A2 B2 | %11
 c6[K:bass][K:treble] z2 | c2 c2 B2 c2 |[M:9/8] d6- d z z |[M:4/4] c2 e2 c2 [Ec][=EB] | %15
[M:9/8] [FA]2 [DF]- [DF] [FA]2- [FA] [FB]2 |[M:4/4] c2 A2 B2 AG |[M:3/4] [CEA]6 |] %18
V:2
 z4 z2 [A,,A,]2 | [A,,A,]2 [A,,E,]2 [A,,E,]2 [A,,E,]2 | [A,,A,]2 [B,,A,]2 [A,,A,]2 [C,A,]2 | %3
 [E,G,]2 [E,G,E]2 [E,E]-[E,F,E][E,E]-[E,A,E] | [E,B,E]2 [E,B,E]2 [E,B,E]2 [E,G,E]2 | %5
 [A,E]2 [A,CE]2 [A,E]2 [A,,A,]2 |[M:9/8] [D,A,]2 [D,A,]- [D,A,] [D,A,]2- [D,A,] [D,A,]2 | %7
[M:4/4] [E,A,E]2 [E,CE]2 [E,DE]2 CB, |[M:3/4] A,,6 |[M:1/4] A,,2 | %10
[M:4/4] [G,E]2 [G,E]2 [F,E]2 [G,E]2 | [A,E]6 [A,,E,]2 | [A,E]2 [A,E]2 [G,B,E]2 [A,E]2 | %13
[M:9/8] [E,G,E]2 [E,B,]- [E,B,] [E,B,]2- [E,B,] [E,G,E]2 |[M:4/4] [A,E]2 [A,CE]2 [A,E]2 [A,,A,]2 | %15
[M:9/8] [D,A,]2 [D,A,]- [D,A,] [D,A,]2- [D,A,] [D,A,]2 |[M:4/4] [E,A,E]2 [E,CE]2 [E,DE]2 CB, | %17
[M:3/4] A,,6 |] %18
V:3
 x8 | x8 | x8 | z4 .G,2 .G,2 | x8 | x8 |[M:9/8] x9 |[M:4/4] z4 z2 [E,E]2 |[M:3/4] x6 |[M:1/4] x2 | %10
[M:4/4] E,4 E,4 | x8 | x8 |[M:9/8] x9 |[M:4/4] x8 |[M:9/8] x9 |[M:4/4] z4 z2 [E,E]2 |[M:3/4] x6 |] %18
V:4
 x8 | x8 | x8 | x8 | x8 | x8 |[M:9/8] x9 |[M:4/4] x8 |[M:3/4] x6 |[M:1/4] x2 |[M:4/4] x8 | %11
 z2[K:bass] E,2 C,2[K:treble] [CA]2 | x8 |[M:9/8] z2 G- G G2- G B2 |[M:4/4] x8 |[M:9/8] x9 | %16
[M:4/4] x8 |[M:3/4] x6 |] %18

